source/icons/right.svg

<?xml version="1.0" encoding="UTF-8" standalone="no"?>
<!--
   ~  Copyright 2016 horst3180 <http://horst3180.deviantart.com/>
   ~  Copyright 2017 Nicola Fiori (JD342)
   ~
   ~  This file contains work originating from horst3180's Arc Icon Theme
   ~  and is part of the Arc Integration for Thunderbird, licensed under
   ~  the terms of the GNU General Public License 3.0.
   ~
   -->

<svg xmlns="http://www.w3.org/2000/svg" width="16" height="16" version="1">
    <path d="M4 1v2h11V1H4zM1 4v2h14V4H1zm5 3v2h9V7H6zm5 3v2H8v1h3v2l4-2.5-4-2.5z"/>
</svg>

<?xml version="1.0" encoding="UTF-8" standalone="no"?>
<!--
   ~  Copyright (c) 2016 horst3180 <http://horst3180.deviantart.com/>
   ~  Copyright (c) 2017 Nicola Fiori (JD342)
   ~
   ~  This file is part of the Arc Integration for Thunderbird, with content
   ~  originating from horst3180's Arc Icon Theme.
   ~
   ~  The Arc Integration for Thunderbird is free software: you can
   ~  redistribute it and/or modify it under the terms of the
   ~  GNU General Public License Version 3 as published by the
   ~  Free Software Foundation.
   ~
   ~  The Arc Integration for Thunderbird is distributed in the hope
   ~  that it will be useful, but WITHOUT ANY WARRANTY; without even the
   ~  implied warranty of MERCHANTABILITY or FITNESS FOR A PARTICULAR PURPOSE.
   ~  See the GNU General Public License for more details.
   ~
   ~  You should have received a copy of the GNU General Public License
   ~  along with the Arc Integration for Thunderbird.
   ~  If not, see <http://www.gnu.org/licenses/>.
   ~
   -->

<svg
   xmlns:dc="http://purl.org/dc/elements/1.1/"
   xmlns:cc="http://creativecommons.org/ns#"
   xmlns:rdf="http://www.w3.org/1999/02/22-rdf-syntax-ns#"
   xmlns:svg="http://www.w3.org/2000/svg"
   xmlns="http://www.w3.org/2000/svg"
   xmlns:sodipodi="http://sodipodi.sourceforge.net/DTD/sodipodi-0.dtd"
   xmlns:inkscape="http://www.inkscape.org/namespaces/inkscape"
   width="16"
   height="16"
   id="icon"
   sodipodi:version="0.32"
   inkscape:version="0.48.5 r10040"
   version="1.0"
   sodipodi:docname="format-justify-right.svg"
   inkscape:output_extension="org.inkscape.output.svg.inkscape"
   inkscape:export-filename="/home/matt/.icons/Sirocco/scalable/mimetypes/text-plain.png"
   inkscape:export-xdpi="90"
   inkscape:export-ydpi="90"
   sodipodi:modified="true"
   style="display:inline">
  <sodipodi:namedview
     id="base"
     pagecolor="#ffffff"
     bordercolor="#666666"
     borderopacity="1.0"
     inkscape:pageopacity="0.0"
     inkscape:pageshadow="2"
     inkscape:zoom="24.859835"
     inkscape:cx="7.5358405"
     inkscape:cy="11.220484"
     inkscape:document-units="px"
     inkscape:current-layer="layer1"
     width="128px"
     height="128px"
     inkscape:showpageshadow="false"
     inkscape:window-width="1920"
     inkscape:window-height="1026"
     inkscape:window-x="3840"
     inkscape:window-y="25"
     showguides="true"
     inkscape:guide-bbox="true"
     showgrid="true"
     inkscape:window-maximized="1">
    <sodipodi:guide
       id="guide2226"
       position="32.637397,117.99844"
       orientation="horizontal" />
    <sodipodi:guide
       id="guide2230"
       position="110,57.402344"
       orientation="vertical" />
    <sodipodi:guide
       id="guide2232"
       position="33.760911"
       orientation="horizontal" />
    <sodipodi:guide
       id="guide2231"
       position="46.774696"
       orientation="horizontal" />
    <inkscape:grid
       enabled="true"
       visible="true"
       id="grid3231"
       type="xygrid" />
    <sodipodi:guide
       orientation="1,0"
       position="100,67.625"
       id="guide2713" />
  </sodipodi:namedview>
  <defs
     id="defs4" />
  <metadata
     id="metadata7">
    <rdf:RDF>
      <cc:Work
         rdf:about="">
        <dc:format>image/svg+xml</dc:format>
        <dc:type
           rdf:resource="http://purl.org/dc/dcmitype/StillImage" />
      </cc:Work>
    </rdf:RDF>
  </metadata>
  <g
     style="display:inline"
     inkscape:label="Calque 1"
     id="layer1"
     inkscape:groupmode="layer">
    <path
       style="fill:#000000;fill-opacity:1;stroke:none;display:inline"
       d="M 4 1 L 4 3 L 15 3 L 15 1 L 4 1 z M 1 4 L 1 6 L 15 6 L 15 4 L 1 4 z M 6 7 L 6 9 L 15 9 L 15 7 L 6 7 z M 11 10 L 11 12 L 8 12 L 8 13 L 11 13 L 11 15 L 15 12.5 L 11 10 z "
       id="path2890" />
  </g>
</svg>
